X: 15303
T: Girls Of Farranfore, The
R: reel
M: 4/4
K: Eminor
A|:B2 EF G3 B|AD (3DDD FAAc|B2 EF GAB^c|d^cBA Be e2:|
eB (3BBB egfe|defg a3 z|eB (3BBB egfe|dBAF BE E2|
eB (3BBB egfe|defg a3 z|g3 e f3 d|edBA Be e2||

